X: 14
T: Rambling Pitchfork, The
Z: Sean Perry
S: https://thesession.org/tunes/89#setting50916
R: jig
M: 6/8
L: 1/8
K: Dmaj
|:~F3 AFF|dFF AFD|GFG ABc|ded cAG|
~F3 AFF|dFF AFD|GFG BAG|1 AFD D2E:|2 AFD D2A||
|:d2e fed|ecA AFA|d2e fed|f/g/af gfe|
d2e fed|ecA AGF|GFG BAG|1AFD D2A:|2 AFD D3||

